X:92
T: Xiaoxaio liyu fenhong sai
N: C1585
O: China,Jiangsu, Subei)
S: III, 500]
R: Xiaodiao, Baduan jin]
M: 2/4
L: 1/16
K: D
d4d4 | e2f2d4 | B2AABABd | A8 |
A3Bd2ed | BdBAF2EF | A2E2F2A2 | D8 |
FEFABABd | A8 |
FEFABABd | A8 |
A2ABd2ed | BdBAF2EF | A2E2F2A2 | D8 |
F2FEDEF2 | E3DE4 |
F2FEDEF2 | E3DE4 |
A2ABd2ed | BdBAF2EF | A2E2F2A2 | D8

@@@ Tune index: 6647
